X:509
T:MacVicar's
R:Strathspey
B:The Athole Collection
M:C|
L:1/8
K:C
c|G<E E>c G<E E>c|G<E c>E D2 D>e|G<E E>G c>de>d|c>AG>E D2 D:|
e|ce/f/ g>e c<ge<a|g<c g>e d2 d>e|ce/f/ g>e c<g e>d|c>Ac>E D2 D>e|
ce/f/ g>e c<ge<a|g<c g>e d2 de/f/|g>ef>d e>cd>B|c>AG>E D2D||
|:E|C>GE>c G>cE>c|C>GE>c D2 D>E|C>GE>G c>de>d|c>Ac>E D2D:|
e/f/|g>ce>c g<cf<a|g>cg>e d2 de/f/|g<c e>d c>de>d|c>AG>E D2 De/f/|
g<c e>c g<c f>a|g<c g>e d2 d^c/d/|e>cd>B c>AG>E|F>dE>c D2D||

